Simply-Blue-Circles/symbolic/categories/applications-office-symbolic.svg

<svg xmlns="http://www.w3.org/2000/svg" width="24" height="24" viewBox="0 0 6.35 6.35"><path d="M4.8.99a.212.212 0 0 0-.15.062l-.32.32.699.697.32-.318a.212.212 0 0 0 0-.3l-.4-.399A.21.21 0 0 0 4.8.991zm-.62.53L2.252 3.445l.7.699 1.927-1.924zm-2.945.203a.297.297 0 0 0-.296.296V4.98c0 .163.134.297.296.297h2.962a.297.297 0 0 0 .296-.297V2.863l-.458.457V4.82H1.398V2.18h1.86l.46-.458zm.866 1.87l-.15.848.85-.149z" fill="gray"/></svg>

<?xml version="1.0" encoding="UTF-8" standalone="no"?>
<svg
   xmlns:dc="http://purl.org/dc/elements/1.1/"
   xmlns:cc="http://creativecommons.org/ns#"
   xmlns:rdf="http://www.w3.org/1999/02/22-rdf-syntax-ns#"
   xmlns:svg="http://www.w3.org/2000/svg"
   xmlns="http://www.w3.org/2000/svg"
   xmlns:sodipodi="http://sodipodi.sourceforge.net/DTD/sodipodi-0.dtd"
   xmlns:inkscape="http://www.inkscape.org/namespaces/inkscape"
   width="24"
   height="24"
   viewBox="0 0 6.35 6.35"
   version="1.1"
   id="svg4"
   sodipodi:docname="applications-office-symbolic.svg"
   inkscape:version="0.92.4 (5da689c313, 2019-01-14)">
  <metadata
     id="metadata10">
    <rdf:RDF>
      <cc:Work
         rdf:about="">
        <dc:format>image/svg+xml</dc:format>
        <dc:type
           rdf:resource="http://purl.org/dc/dcmitype/StillImage" />
        <dc:title></dc:title>
      </cc:Work>
    </rdf:RDF>
  </metadata>
  <defs
     id="defs8" />
  <sodipodi:namedview
     pagecolor="#ffffff"
     bordercolor="#666666"
     borderopacity="1"
     objecttolerance="10"
     gridtolerance="10"
     guidetolerance="10"
     inkscape:pageopacity="0"
     inkscape:pageshadow="2"
     inkscape:window-width="1085"
     inkscape:window-height="480"
     id="namedview6"
     showgrid="false"
     inkscape:zoom="9.8333333"
     inkscape:cx="1.0677966"
     inkscape:cy="12"
     inkscape:window-x="0"
     inkscape:window-y="25"
     inkscape:window-maximized="0"
     inkscape:current-layer="svg4" />
  <path
     d="M 4.8,0.99 A 0.212,0.212 0 0 0 4.65,1.052 l -0.32,0.32 0.699,0.697 0.32,-0.318 a 0.212,0.212 0 0 0 0,-0.3 L 4.949,1.052 A 0.21,0.21 0 0 0 4.8,0.991 Z M 4.18,1.52 2.252,3.445 2.952,4.144 4.879,2.22 Z M 1.235,1.723 A 0.297,0.297 0 0 0 0.939,2.019 V 4.98 c 0,0.163 0.134,0.297 0.296,0.297 H 4.197 A 0.297,0.297 0 0 0 4.493,4.98 V 2.863 L 4.035,3.32 v 1.5 H 1.398 V 2.18 h 1.86 l 0.46,-0.458 z m 0.866,1.87 -0.15,0.848 0.85,-0.149 z"
     id="path2"
     inkscape:connector-curvature="0"
     style="fill:#808080" />
</svg>
